apps/mobile/assets/icons/phosphor/chat-centered.svg

<svg
  height="32"
  viewBox="0 0 256 256"
  width="32"
  xmlns="http://www.w3.org/2000/svg"
>
  <path
    d="m216 40h-176a16 16 0 0 0 -16 16v128a16 16 0 0 0 16 16h60.43l13.68 23.94a16 16 0 0 0 27.78 0l13.68-23.94h60.43a16 16 0 0 0 16-16v-128a16 16 0 0 0 -16-16zm0 144h-65.07a8 8 0 0 0 -7 4l-16 28-16-28a8 8 0 0 0 -7-4h-64.93v-128h176z"
  />
</svg>

<svg xmlns="http://www.w3.org/2000/svg" width="32" height="32" fill="#000000" viewBox="0 0 256 256"><path d="M216,40H40A16,16,0,0,0,24,56V184a16,16,0,0,0,16,16h60.43l13.68,23.94a16,16,0,0,0,27.78,0L155.57,200H216a16,16,0,0,0,16-16V56A16,16,0,0,0,216,40Zm0,144H150.93a8,8,0,0,0-7,4l-16,28-16-28a8,8,0,0,0-7-4H40V56H216Z"></path></svg>
